X: 6982
T: Chicago, The
R: reel
M: 4/4
K: Adorian
|:cded cAGE|G2GF GAcd|ecgc acgc|eaag edcA|
cded cAGE|G2GF GAcd|eaag (3efg ed|cABG A2AB:|
|:cdef g2ef|gfgd BGG2|cdef g2fg|eaag aged|
cdef g3e|a3f g3e|=f3d e^fed|cABG A3B:|

